X: 24616
T: Mac's Fancy
R: jig
M: 6/8
K: Amixolydian
a/f/|e>AA fed|e>AA a2f|e>AA fed|dGG g2f|
e>AA fed|e>AA a2f|gag f2e|dBG G2:|
|:B|AAA a>AA|e>AA f>AA|B>GG a2f|
e>AA f>AA|e>AA fed|gag feg|dBG G2:|
|:B|A/A/Aa aeg|aea aAB|A/A/Aa aef|gGd BAG|
A/A/Aa aeg|aea aef|a>AA e>AA|dBG G2||

